src/icons/IconMaxWidth/IconMaxWidth_size_m.svg

<svg width="24" height="24" viewBox="0 0 24 24" xmlns="http://www.w3.org/2000/svg">
  <path
    d="M4 12.4444V20H2V4H4V11.5556L8 8V11H16V8L20 11.5556V4H22V20H20V12.4444L16 16V13H8V16L4 12.4444Z"
  />
</svg>

<svg viewBox="0 0 24 24" xmlns="http://www.w3.org/2000/svg">
  <path d="M4 12.444V20H2V4h2v7.556L8 8v3h8V8l4 3.556V4h2v16h-2v-7.556L16 16v-3H8v3l-4-3.556z" />
</svg>
